X: 26860
T: Miners
R: hornpipe
M: 4/4
K: Dmajor
A,|:D2D2 FDFA|BABc dcBA|Bcdc BAGF|EDCB, A,GFE|
D2D2 FDFA|BABc dcBA|BcdB AGFE|1 D2CE D3A,:|2 D2CE D2D2||
|:afdf gece|dcdB AFD2|gaba gfed|deed e2 de|
f2fd ecA2|gdBe dcBA|BcdB AGFE|1 D2CE D2D2:|2 D2CE D3||

